material/.icons/material/bottle-soda.svg

<svg xmlns="http://www.w3.org/2000/svg" viewBox="0 0 24 24"><path d="M15 11v9a2 2 0 01-2 2h-2a2 2 0 01-2-2v-9a2 2 0 01.6-1.42C11.1 7.89 11 4 11 4h-1V2h4v2h-1s-.1 3.89 1.4 5.58A2 2 0 0115 11z"/></svg>

<?xml version="1.0" encoding="UTF-8"?><!DOCTYPE svg PUBLIC "-//W3C//DTD SVG 1.1//EN" "http://www.w3.org/Graphics/SVG/1.1/DTD/svg11.dtd"><svg xmlns="http://www.w3.org/2000/svg" xmlns:xlink="http://www.w3.org/1999/xlink" version="1.1" id="mdi-bottle-soda" width="24" height="24" viewBox="0 0 24 24"><path d="M15 11V20A2 2 0 0 1 13 22H11A2 2 0 0 1 9 20V11A2 2 0 0 1 9.6 9.58C11.1 7.89 11 4 11 4H10V2H14V4H13S12.9 7.89 14.4 9.58A2 2 0 0 1 15 11Z" /></svg>
